X: 43493
T: Yellow Wattle, The
R: jig
M: 6/8
K: Dmixolydian
|:dcA AGE|ABA ABc|dcA ABc|dcA AGE|
dcA AGE|ABA AGE|EDD cde|dcA GED:|
|:DED c3|ded c3|DED cde|dcA GED|
DED c3|ded d2c|ABA ABc|dcA GED:|

